app/client/src/assets/icons/blueprintjs/16px/rectangle.svg

<svg xmlns="http://www.w3.org/2000/svg" width="16" height="16"><path fill-rule="evenodd" d="M1 3h14c.55 0 1 .45 1 1v8c0 .55-.45 1-1 1H1c-.55 0-1-.45-1-1V4c0-.55.45-1 1-1Zm1 2v6h12V5H2Z" clip-rule="evenodd"/></svg>

<svg width="16" height="16" viewBox="0 0 16 16" fill="none" xmlns="http://www.w3.org/2000/svg">
<path fill-rule="evenodd" clip-rule="evenodd" d="M1 3H15C15.55 3 16 3.45 16 4V12C16 12.55 15.55 13 15 13H1C0.45 13 0 12.55 0 12V4C0 3.45 0.45 3 1 3ZM2 5V11H14V5H2Z" fill="#5F6B7C"/>
</svg>
